public/zimo-vertical-mobile.svg

<?xml version="1.0" encoding="UTF-8" standalone="no"?>
<!DOCTYPE svg PUBLIC "-//W3C//DTD SVG 1.1//EN" "http://www.w3.org/Graphics/SVG/1.1/DTD/svg11.dtd">
<!-- Created with Vectornator (http://vectornator.io/) -->
<svg height="100%" stroke-miterlimit="10" style="fill-rule:nonzero;clip-rule:evenodd;stroke-linecap:round;stroke-linejoin:round;" version="1.1" viewBox="0 0 32.5866 39.1785" width="100%" xml:space="preserve" xmlns="http://www.w3.org/2000/svg" xmlns:vectornator="http://vectornator.io" xmlns:xlink="http://www.w3.org/1999/xlink">
<defs>
<linearGradient gradientTransform="matrix(1 0 0 1 -22.3125 -0.00448669)" gradientUnits="userSpaceOnUse" id="LinearGradient" x1="17.6369" x2="58.8609" y1="44.1937" y2="-3.00339">
<stop offset="0" stop-color="#fbceff"/>
<stop offset="0.486525" stop-color="#ffe1e1"/>
<stop offset="1" stop-color="#d0fff9"/>
</linearGradient>
</defs>
<g id="Layer-1" vectornator:layerName="Layer 1">
<g opacity="1" vectornator:layerName="Group 10">
<g opacity="1" vectornator:layerName="Group 9">
<g opacity="1" vectornator:layerName="Group 1">
<path d="M5 0.214263C3.4191 0.214263 2.19003 0.642531 1.3125 1.52676C0.434968 2.411 0 3.67352 0 5.30801C3.17891e-06 6.90231 0.450584 8.1336 1.34375 9.02676C2.23691 9.91993 3.49052 10.3705 5.09375 10.3705C6.24147 10.3705 7.17384 10.1653 7.9375 9.71426C8.70116 9.26321 9.2722 8.65871 9.625 7.93301C9.9778 7.20732 10.1562 6.29054 10.1562 5.18301C10.1563 4.09335 9.93987 3.19442 9.53125 2.46426C9.12263 1.7341 8.54713 1.16306 7.8125 0.776763C7.07788 0.39047 6.14772 0.214263 5 0.214263ZM16.1562 0.214263C14.5753 0.214263 13.3463 0.642531 12.4688 1.52676C11.5912 2.411 11.1562 3.67352 11.1562 5.30801C11.1563 6.90231 11.6068 8.1336 12.5 9.02676C13.3932 9.91993 14.6468 10.3705 16.25 10.3705C17.3977 10.3705 18.3301 10.1653 19.0938 9.71426C19.8574 9.26321 20.4285 8.65871 20.7812 7.93301C21.134 7.20732 21.3125 6.29053 21.3125 5.18301C21.3125 4.09335 21.0961 3.19442 20.6875 2.46426C20.2789 1.7341 19.7034 1.16306 18.9688 0.776763C18.2341 0.39047 17.304 0.214263 16.1562 0.214263ZM27.3125 0.214263C25.7316 0.214263 24.5025 0.642531 23.625 1.52676C22.7475 2.411 22.3125 3.67352 22.3125 5.30801C22.3125 6.90231 22.7631 8.1336 23.6562 9.02676C24.5494 9.91993 25.803 10.3705 27.4062 10.3705C28.554 10.3705 29.4863 10.1653 30.25 9.71426C31.0137 9.26321 31.5847 8.65871 31.9375 7.93301C32.2903 7.20732 32.4688 6.29053 32.4688 5.18301C32.4687 4.09335 32.2524 3.19442 31.8438 2.46426C31.4351 1.7341 30.8596 1.16306 30.125 0.776763C29.3904 0.39047 28.4602 0.214263 27.3125 0.214263ZM4.96875 3.24551C6.06734 3.24551 6.82574 3.4195 7.25 3.77676C7.67426 4.13403 7.875 4.62475 7.875 5.27676C7.875 5.91091 7.65193 6.40833 7.21875 6.77676C6.78556 7.14519 6.08516 7.33926 5.09375 7.33926C4.0934 7.33926 3.37068 7.14743 2.9375 6.77676C2.50431 6.4061 2.28125 5.91983 2.28125 5.30801C2.28125 4.6694 2.51102 4.18091 2.9375 3.80801C3.36399 3.43512 4.04432 3.24551 4.96875 3.24551ZM16.125 3.24551C17.2236 3.24551 17.982 3.4195 18.4062 3.77676C18.8305 4.13403 19.0312 4.62475 19.0312 5.27676C19.0312 5.91091 18.8082 6.40833 18.375 6.77676C17.9418 7.14519 17.2414 7.33926 16.25 7.33926C15.2497 7.33926 14.5269 7.14743 14.0938 6.77676C13.6606 6.4061 13.4375 5.91983 13.4375 5.30801C13.4375 4.6694 13.6673 4.18091 14.0938 3.80801C14.5202 3.43512 15.2006 3.24551 16.125 3.24551ZM27.2812 3.24551C28.3798 3.24551 29.1382 3.4195 29.5625 3.77676C29.9868 4.13403 30.1875 4.62475 30.1875 5.27676C30.1875 5.91091 29.9644 6.40833 29.5312 6.77676C29.0981 7.14519 28.3977 7.33926 27.4062 7.33926C26.4059 7.33926 25.6832 7.14743 25.25 6.77676C24.8168 6.4061 24.5938 5.91983 24.5938 5.30801C24.5937 4.6694 24.8235 4.18091 25.25 3.80801C25.6765 3.43512 26.3568 3.24551 27.2812 3.24551ZM0.15625 11.933L0.15625 15.9018L6.15625 17.433L0.15625 18.9955L0.15625 22.9643L10 22.9643L10 20.4955L2.5 20.4955L10 18.5893L10 16.3393L2.5 14.4018L10 14.4018L10 11.933L0.15625 11.933ZM11.3125 11.933L11.3125 15.9018L17.2812 17.433L11.3125 18.9955L11.3125 22.9643L21.1562 22.9643L21.1562 20.4955L13.6562 20.4955L21.1562 18.5893L21.1562 16.3393L13.6562 14.4018L21.1562 14.4018L21.1562 11.933L11.3125 11.933ZM22.4688 11.933L22.4688 15.9018L28.4375 17.433L22.4688 18.9955L22.4688 22.9643L32.2812 22.9643L32.2812 20.4955L24.8125 20.4955L32.2812 18.5893L32.2812 16.3393L24.8125 14.4018L32.2812 14.4018L32.2812 11.933L22.4688 11.933ZM0.15625 25.1205L0.15625 28.1518L10 28.1518L10 25.1205L0.15625 25.1205ZM11.3125 25.1205L11.3125 28.1518L21.1562 28.1518L21.1562 25.1205L11.3125 25.1205ZM22.4688 25.1205L22.4688 28.1518L32.2812 28.1518L32.2812 25.1205L22.4688 25.1205ZM7.875 29.6518L7.875 35.3705L2.125 29.8393L0.15625 29.8393L0.15625 38.433L2.25 38.433L2.25 33.5268L7.9375 38.9643L10 38.9643L10 29.6518L7.875 29.6518ZM19.0312 29.6518L19.0312 35.3705L13.2812 29.8393L11.3125 29.8393L11.3125 38.433L13.4062 38.433L13.4062 33.5268L19.0938 38.9643L21.1562 38.9643L21.1562 29.6518L19.0312 29.6518ZM30.1875 29.6518L30.1875 35.3705L24.4375 29.8393L22.4688 29.8393L22.4688 38.433L24.5625 38.433L24.5625 33.5268L30.25 38.9643L32.2812 38.9643L32.2812 29.6518L30.1875 29.6518Z" fill="url(#LinearGradient)" fill-rule="nonzero" opacity="1" stroke="none" vectornator:layerName="Curve 1"/>
</g>
</g>
</g>
</g>
</svg>

<svg xmlns="http://www.w3.org/2000/svg" xmlns:vectornator="http://vectornator.io" xml:space="preserve" stroke-miterlimit="10" style="fill-rule:nonzero;clip-rule:evenodd;stroke-linecap:round;stroke-linejoin:round" viewBox="0 0 32.587 39.178"><defs><linearGradient id="a" x1="17.637" x2="58.861" y1="44.194" y2="-3.003" gradientTransform="translate(-22.313 -.004)" gradientUnits="userSpaceOnUse"><stop offset="0" stop-color="#fbceff"/><stop offset=".487" stop-color="#ffe1e1"/><stop offset="1" stop-color="#d0fff9"/></linearGradient></defs><g vectornator:layerName="Layer 1"><g vectornator:layerName="Group 10"><g vectornator:layerName="Group 9"><g vectornator:layerName="Group 1"><path vectornator:layerName="Curve 1" fill="url(#a)" d="M5 .214c-1.58 0-2.81.429-3.688 1.313C.435 2.41 0 3.674 0 5.308c0 1.594.45 2.826 1.344 3.719.893.893 2.147 1.344 3.75 1.344 1.147 0 2.08-.206 2.843-.657.764-.45 1.335-1.055 1.688-1.781s.531-1.642.531-2.75c0-1.09-.216-1.989-.625-2.719A4.17 4.17 0 0 0 7.812.777C7.079.39 6.149.214 5 .214Zm11.156 0c-1.58 0-2.81.429-3.687 1.313-.878.884-1.313 2.147-1.313 3.781 0 1.594.45 2.826 1.344 3.719.893.893 2.147 1.344 3.75 1.344 1.148 0 2.08-.206 2.844-.657.763-.45 1.334-1.055 1.687-1.781s.532-1.642.532-2.75c0-1.09-.217-1.989-.625-2.719a4.17 4.17 0 0 0-1.72-1.687C18.235.39 17.305.214 16.157.214Zm11.157 0c-1.581 0-2.81.429-3.688 1.313-.878.884-1.313 2.147-1.313 3.781 0 1.594.451 2.826 1.344 3.719.893.893 2.147 1.344 3.75 1.344 1.148 0 2.08-.206 2.844-.657.764-.45 1.335-1.055 1.688-1.781.352-.726.53-1.642.53-2.75 0-1.09-.216-1.989-.624-2.719A4.172 4.172 0 0 0 30.125.777C29.39.39 28.46.214 27.312.214ZM4.968 3.246c1.098 0 1.857.174 2.281.53.424.358.625.849.625 1.5 0 .635-.223 1.132-.656 1.5-.433.37-1.134.563-2.125.563-1 0-1.723-.192-2.157-.562-.433-.37-.656-.857-.656-1.469 0-.639.23-1.127.656-1.5.427-.373 1.107-.562 2.032-.562Zm11.156 0c1.099 0 1.857.174 2.281.53.425.358.625.849.625 1.5 0 .635-.223 1.132-.656 1.5-.433.37-1.134.563-2.125.563-1 0-1.723-.192-2.156-.562-.433-.37-.656-.857-.656-1.469 0-.639.23-1.127.656-1.5.426-.373 1.107-.562 2.031-.562Zm11.156 0c1.099 0 1.857.174 2.282.53.424.358.625.849.625 1.5 0 .635-.224 1.132-.657 1.5-.433.37-1.133.563-2.125.563-1 0-1.723-.192-2.156-.562-.433-.37-.656-.857-.656-1.469 0-.639.23-1.127.656-1.5.427-.373 1.107-.562 2.031-.562ZM.156 11.933v3.969l6 1.531-6 1.563v3.968H10v-2.468H2.5l7.5-1.907v-2.25l-7.5-1.937H10v-2.469H.156Zm11.156 0v3.969l5.97 1.531-5.97 1.563v3.968h9.844v-2.468h-7.5l7.5-1.907v-2.25l-7.5-1.937h7.5v-2.469h-9.843Zm11.157 0v3.969l5.968 1.531-5.968 1.563v3.968h9.812v-2.468h-7.468l7.468-1.907v-2.25l-7.468-1.937h7.468v-2.469H22.47ZM.156 25.121v3.03H10v-3.03H.156Zm11.156 0v3.03h9.844v-3.03h-9.843Zm11.157 0v3.03h9.812v-3.03H22.47ZM7.875 29.65v5.72l-5.75-5.532H.156v8.594H2.25v-4.906l5.688 5.437H10v-9.312H7.875Zm11.156 0v5.72l-5.75-5.532h-1.969v8.594h2.094v-4.906l5.688 5.437h2.062v-9.312h-2.125Zm11.157 0v5.72l-5.75-5.532h-1.97v8.594h2.095v-4.906l5.687 5.437h2.031v-9.312h-2.093Z"/></g></g></g></g></svg>
